X: 1
T: Lynch's
M: 4/4
L: 1/8
R: barndance
K: Dmaj
|: F2 F2 A2 A2 | G>FG>A B2 B2 | A>dc>B A>GF>E | D>E (3FDF (3A,DF A2 |
F2 F2 A2 A2 | G>FG>A B2 B2|A>dc>B A>GF>E |[1 D2 (3DFA d3 A :|
[2 D2 (3DFA d2 d>e ||
f2 f2 f2 e>d | c>Bc>d e3 f | g2 g2 g2 (3ABc | d>cd>e f3 e |
f2 f2 f2 e>d | c>Bc>d e3 f | g2 g2 A2 B>c | (3efe d2 d3 e |
f2 f2 f2 e>d | c>Bc>d e3 f | g2 g2 g2 (3ABc | d>ef>g a3 g |
f2 f2 f2 e>d | c>Bc>d e2 e>f | g2 g2 A2 B>c | (3efe d2 d3 A |]
